X:1
T:Brown Girl (Child #295)
M:3/4
L:1/4
K:C
 G| c c c| A G G| A c c| d2 c| e g g| e d c| c/2c/2 d e| d2 c| e g e|\
 d c c| c d e| G3| G2- E| D C G| E c e| d c A| G2||
